packages/core/src/svgs/tokens/mono/IRIS.svg

<svg width="24" height="24" viewBox="0 0 24 24" fill="none" xmlns="http://www.w3.org/2000/svg">
<path d="M11.0018 2C7.34557 2.31249 4.75183 4.82499 3.90185 6.04998L5.33309 5.92499C6.6868 4.38203 8.54148 3.36615 10.5706 3.05624L11.0081 2H11.0018ZM11.0018 22C7.34557 21.6875 4.67059 19.1812 3.87684 17.8438L5.03934 17.7186C6.55809 19.6687 9.15179 20.7811 10.1894 20.8625L11.0018 22ZM13.0143 2C16.6393 2.24999 19.1705 4.78124 20.1206 6.11873L18.9455 6.28123C17.1955 4.11873 14.9268 3.24999 13.8206 3.1375L13.0143 2ZM13.0143 22C16.6393 21.7499 19.1705 19.2187 20.1206 17.8812L18.7267 17.9999C17.3708 19.563 15.5076 20.5985 13.4644 20.9249L13.0143 22ZM2.87685 16.1312C1.28935 12.4875 2.21434 9.07496 2.87685 7.83123L3.57684 8.74998C2.87243 10.7198 2.82856 12.8655 3.45184 14.8625L2.87685 16.1312ZM21.1269 16.1312C22.7205 12.4875 21.7706 9.10619 21.108 7.85622L20.5581 9.13127C21.4518 11.525 20.7706 14.1937 20.4143 15.1937L21.133 16.1312H21.1269Z" fill="white"/>
<path fill-rule="evenodd" clip-rule="evenodd" d="M11.9586 2.06873L10.1336 6.22496L3.46484 7.01872L6.17109 10.8L3.46484 17.0124L8.04608 16.4874L12.0586 21.9124L13.8898 17.675L20.5835 16.9124L17.8336 13.1811L20.521 7.01246L15.9586 7.48747L11.9586 2.06873ZM12.1967 4.16223L10.6342 7.68721C10.6093 7.74346 10.5467 7.91846 10.5467 8.15596L14.328 7.76846L12.6155 11.906L14.2029 14.0622L15.6843 10.7934C15.8177 10.4517 15.8704 10.0838 15.8379 9.71832C15.8053 9.35286 15.6885 8.99996 15.4968 8.68722C15.0167 7.94683 13.3482 5.70756 12.4086 4.44653L12.1967 4.16223ZM16.6092 8.48721L18.8155 8.23097H18.8217L17.1092 12.2247C17.0217 12.1122 16.7592 11.8373 16.4404 11.6497C16.7343 11.2372 17.1718 10.0122 16.6092 8.48721ZM9.64054 7.36847L5.32802 7.85596L6.703 9.731C7.02003 9.28621 7.43793 8.92293 7.92246 8.67088C8.40699 8.41884 8.94435 8.28522 9.49048 8.28096C9.49048 7.79971 9.59052 7.46846 9.64054 7.36847ZM12.6656 8.99347L8.95926 9.40594C8.61395 9.46311 8.28844 9.60573 8.01228 9.82084C7.73613 10.0358 7.51809 10.3165 7.37801 10.6372C6.97176 11.5434 5.72177 14.4309 5.14676 15.7622L8.603 15.381C8.778 15.3559 9.19677 15.281 9.42807 15.1684L7.17801 12.0747L11.6156 11.5059L12.6656 8.99347ZM11.7405 12.5622L9.09673 12.9059C9.80519 13.888 10.5177 14.8672 11.2342 15.8434C11.8905 16.731 13.0468 16.7184 13.6404 16.6559L18.6593 16.0496L16.4842 13.106C16.2968 12.8559 16.078 12.6935 15.9967 12.6434L14.4654 16.1122L11.7405 12.5622ZM9.278 16.3496C9.5424 16.2771 9.79965 16.1809 10.0467 16.0622V16.0685C10.3449 16.5243 10.7375 16.9108 11.1979 17.202C11.6583 17.4931 12.1758 17.682 12.7154 17.7559L11.8404 19.8184L9.278 16.3496Z" fill="white"/>
</svg>

<svg xmlns="http://www.w3.org/2000/svg" width="24" height="24" fill="none" viewBox="0 0 24 24">
    <path fill="#fff" d="M11.002 2c-3.656.312-6.25 2.825-7.1 4.05l1.431-.125a8.72 8.72 0 0 1 5.238-2.869L11.008 2zm0 20c-3.656-.312-6.331-2.819-7.125-4.156l1.162-.125c1.52 1.95 4.113 3.062 5.15 3.143zm2.012-20c3.625.25 6.157 2.781 7.107 4.119l-1.175.162c-1.75-2.162-4.02-3.031-5.125-3.143zm0 20c3.625-.25 6.157-2.781 7.107-4.119L18.727 18a8.8 8.8 0 0 1-5.263 2.925zM2.877 16.131c-1.588-3.643-.663-7.056 0-8.3l.7.919a9.63 9.63 0 0 0-.125 6.113zm18.25 0c1.594-3.643.644-7.025-.019-8.275l-.55 1.275c.894 2.394.213 5.063-.144 6.063l.719.937z"/>
    <path fill="#fff" fill-rule="evenodd" d="m11.959 2.069-1.825 4.156-6.67.794L6.172 10.8l-2.706 6.212 4.581-.525 4.013 5.425 1.83-4.237 6.695-.763-2.75-3.73 2.687-6.17-4.562.475zm.238 2.093-1.563 3.525a1.2 1.2 0 0 0-.087.469l3.781-.388-1.712 4.138 1.587 2.156 1.481-3.269a2.38 2.38 0 0 0-.187-2.106c-.48-.74-2.149-2.98-3.088-4.24zm4.412 4.325 2.206-.256h.007l-1.713 3.994a2.7 2.7 0 0 0-.669-.575c.294-.413.732-1.638.17-3.163M9.641 7.368l-4.313.488 1.375 1.875a3.46 3.46 0 0 1 2.787-1.45c0-.481.1-.813.15-.913m3.025 1.625-3.707.413a2.1 2.1 0 0 0-1.581 1.231 694 694 0 0 0-2.231 5.125l3.456-.381c.175-.025.594-.1.825-.213l-2.25-3.093 4.438-.57zm-.925 3.57-2.644.343a441 441 0 0 0 2.137 2.937c.656.888 1.813.875 2.406.813l5.02-.606-2.176-2.944a2 2 0 0 0-.487-.463l-1.532 3.47zM9.278 16.35q.397-.11.769-.288v.006a3.8 3.8 0 0 0 2.668 1.688l-.875 2.062z" clip-rule="evenodd"/>
</svg>
